src/images/bridges/layer-zero.svg

<svg width="36" height="36" viewBox="0 0 36 36" fill="none" xmlns="http://www.w3.org/2000/svg">
<circle cx="18" cy="18" r="18" transform="rotate(180 18 18)" fill="black"/>
<path d="M17.8366 4C16.8023 4.00513 15.779 4.21395 14.8254 4.61456C13.8717 5.01518 13.0063 5.59978 12.2786 6.33487C11.5509 7.06997 10.9751 7.94122 10.5842 8.89887C10.1932 9.85649 9.99477 10.8818 10.0001 11.9161V14.5308H16.3673V10.7426C16.3672 10.5647 16.4022 10.3885 16.4703 10.2241C16.5383 10.0597 16.6381 9.91038 16.7639 9.78458C16.8897 9.65879 17.039 9.55904 17.2034 9.49092C17.3678 9.42286 17.5439 9.38787 17.7218 9.38792H17.9514C18.1293 9.38787 18.3055 9.42286 18.4699 9.49092C18.6343 9.55904 18.7836 9.65879 18.9095 9.78458C19.0353 9.91038 19.1351 10.0597 19.2032 10.2241C19.2713 10.3885 19.3062 10.5647 19.3062 10.7426V20.898C20.1424 20.898 20.9703 20.7333 21.7429 20.4133C22.5154 20.0934 23.2174 19.6244 23.8086 19.0331C24.3999 18.4419 24.8689 17.74 25.1888 16.9675C25.5088 16.195 25.6735 15.367 25.6735 14.5308V11.9161C25.678 9.82036 24.8527 7.80806 23.378 6.31896C22.6544 5.58413 21.7918 5.00065 20.8404 4.60253C19.889 4.2044 18.868 3.99957 17.8366 4Z" fill="white"/>
<path d="M17.9514 25.8974H17.7218C17.544 25.8974 17.3678 25.8628 17.2034 25.7956C17.0391 25.7284 16.8898 25.6298 16.764 25.5056C16.6382 25.3814 16.5385 25.234 16.4704 25.0717C16.4023 24.9093 16.3673 24.7354 16.3674 24.5597V14.5306C15.5312 14.5306 14.7033 14.6931 13.9307 15.0091C13.1582 15.3251 12.4563 15.7882 11.8651 16.3721C11.2739 16.956 10.8049 17.6492 10.4849 18.4122C10.165 19.1751 10.0003 19.9928 10.0004 20.8185V23.3649C9.9898 24.3878 10.1847 25.4028 10.5737 26.3509C10.9628 27.299 11.5383 28.1616 12.267 28.8887C12.9958 29.6158 13.8632 30.193 14.8192 30.5869C15.7752 30.9808 16.8009 31.1837 17.8367 31.1837C18.8726 31.1837 19.8982 30.9808 20.8542 30.5869C21.8102 30.193 22.6777 29.6158 23.4064 28.8887C24.1351 28.1616 24.7107 27.299 25.0997 26.3509C25.4888 25.4028 25.6836 24.3878 25.6731 23.3649V20.8185H19.3061V24.5597C19.3061 24.7354 19.271 24.9093 19.203 25.0717C19.1349 25.234 19.0351 25.3815 18.9093 25.5057C18.7835 25.6299 18.6341 25.7284 18.4698 25.7956C18.3054 25.8628 18.1293 25.8974 17.9514 25.8974Z" fill="white"/>
</svg>

<svg xmlns="http://www.w3.org/2000/svg" width="36" height="36" fill="none"><circle cx="18" cy="18" r="18" fill="#000" transform="rotate(180 18 18)"/><path fill="#fff" d="M17.837 4A7.876 7.876 0 0 0 10 11.916v2.615h6.367v-3.788a1.353 1.353 0 0 1 1.355-1.355h.23a1.355 1.355 0 0 1 1.354 1.355v10.155a6.367 6.367 0 0 0 6.368-6.367v-2.615a7.93 7.93 0 0 0-2.296-5.597A7.77 7.77 0 0 0 17.837 4"/><path fill="#fff" d="M17.951 25.897h-.23a1.37 1.37 0 0 1-.957-.391 1.34 1.34 0 0 1-.397-.946V14.53c-.836 0-1.664.163-2.436.48a6.4 6.4 0 0 0-2.066 1.362 6.3 6.3 0 0 0-1.38 2.04A6.2 6.2 0 0 0 10 20.82v2.546a7.7 7.7 0 0 0 .574 2.986c.389.948.964 1.81 1.693 2.538a7.8 7.8 0 0 0 2.552 1.698 7.92 7.92 0 0 0 6.035 0 7.8 7.8 0 0 0 2.552-1.698A7.7 7.7 0 0 0 25.1 26.35c.389-.948.584-1.963.573-2.986v-2.546h-6.367v3.74a1.33 1.33 0 0 1-.397.947 1.36 1.36 0 0 1-.958.391"/></svg>
